!!!COM: Robert Schumann
!!!CNT: Deutsch
!!!TXO: Deutsch
!!!OTL: Stirb, Lieb' und Freud'!
!!!LYR: Kerner
!!!OPR: Zwo2lf Gedichte
!!!OPS: Op.35
!!!ONM: No. 2
!!!ENC: Ben Fuhrman
!!!YOR: Schumann Lieder - Max Friedlaender, ed.,
!!!YOR: New York: C. F. Peters, Vol. 2
!!!ODT: 1840/
!!NB: Vocal melody and text only encoded.
!!NB: First instance of melodic material only encoded.
**kern	**silbe
*clefG2	*
*k[b-e-a-d-]	*
*M8/4	*
!!created: 06/27/06 9:30
!!proofed and posted: 06/27/06 9:30
!!edit time: 60 minutes
=1	=1
1r	.
2r	.
{2e-	{Zu
=2	=2
2.a-	Augs-
4g	-burg
2f	steht
2g	ein
=3	=3
(4a-	ho-
4cc	|
4b-)	|
4a-	-hes
2g	Haus,
(4g	 nah'
4g-)	|
=4	=4
(4f	bei
4gn	|
4a-)	|
4e-	dem
(2f	al-
4e-)	|
4d-	-ten
=5	=5
2c}	Dom,}
2r	.
2r	.
{2e-	{da
=6	=6
2.a-	tritt
4g	am
2f	hel-
2g	-len
=7	=7
(4a-	Mor-
4cc)	|
(4b-	-gen
4a-)	|
2g	aus
(4g	ein
4g-)	|
=8	=8
(4f	Ma2g-
4gn	|
4a-)	|
4e-	-de-
2f	-lein
(4e-	gar
4d-)	|
=9	=9
2c}	fromm;}
2r	.
1r	.
=10	=10
1r	.
2r	.
4r	.
{4b-	{Ge-
=11	=11
2.b-	-sang
4b-	er-
2cc	-schallt,
2ddn	zum
=12	=12
(4e-	Do-
4dd-	|
4cc-)	|
4b-	-me
(2an	wallt
4b-)	|
4a-	die
=13	=13
2g	lie-
4a-	-be,
4e-	die
2f	lie-
4g	-be
4g	Ge-
=14	=14
2a-}	-stalt.}
2r	.
1r	.
=15	=15
{2a-	{Dort
4a-	vor
4g	Mar-
2f	-ri-
2g	-as
=16	=16
(4a-	hei-
4cc	|
4b-)	|
4a-	-lig
2g	Bild
(4g	sie
4g-)	|
=17	=17
(4f	be-
4gn	|
4a-)	|
4e-	-tend
(2f	nie-
4e-)	|
4d-	-der-
=18	=18
2c}	-kniet,}
2r	.
2r	.
{2e-	{der
=19	=19
2.a-	Him-
4g	-mel
2f	hat
2g	ihr
=20	=20
(4a-	Herz
4cc)	|
(4b-	er-
4a-)	|
2g	-fu2llt,
(4g	und
4g-)	|
=21	=21
(4f	al-
4gn	|
4a-)	|
4e-	-le
2.f	Welt-
4f	-lust
=22	=22
2g}	flieht:}
2r	.
2r	.
{2cc	{"O
=23	=23
2b-	Jung-
2a-	-frau
1g	rein!
=24	=24
2r	.
2a-	lass
2g	mich
2f	al-
=25	=25
1g	-lein
2r	.
2cc	dein
=26	=26
(1b-	ei-
2.a-)	|
4a-	-gen
=27	=27
2g}	sein!"}
2r	.
2r	.
{2a-	{Als-
=28	=28
2.a-	-bald
4a-	der
2b-	Glok-
2cc	-ken
=29	=29
2.dd-	dump-
4a-	-fer
2b-	Klang
2cc	die
=30	=30
(4dd-	Be-
4cc	|
4b-)	|
4a-	-ten-
(2g-	-den
4a-)	|
4g-	er-
=31	=31
(2f	-weckt
1g-)	|
2f	das
=32	=32
2.g-	Ma2gd-
4f	-lein
2e-	wallt
2f	die
=33	=33
2.g-	Hall'
4f	ent-
2e-	-lang,
2f	es
=34	=34
(4g-	weiss
4f	|
4e-)	|
4d	nicht,
(4c-	was
4e-	|
4d-)	|
4c-	es
=35	=35
(2B-	tra2gt;
1c-	|
4B-)}	|}
4r	.
=36	=36
1r	.
2r	.
{2ee-	{am
=37	=37
2dd-	Haup-
2cc-	-te
1b-	ganz
=38	=38
2r	.
2cc-	von
2b-	Him-
2a-	-mels-
=39	=39
1b-	-glanz
2r	.
4ee-	ei-
4ee-	-nen
=40	=40
(1dd-	Li-
2.cc-)	|
4cc-	-lien-
=41	=41
[1b-	-kranz.}
1b-]}	|
!! rest to measure 43
=43	=43
1r	.
2r	.
{2e-	{Mit
=44	=44
2.a-	Stau-
4g	-nen
2f	schau-
2g	-en
=45	=45
(4a-	all
4cc)	|
(4b-	die
4a-)	|
2g	Leut
(4g	dies
4g-)	|
=46	=46
(4f	Kra2nz-
4gn)	|
(4a-	-lein
4e-)	|
2f	licht
(4e-	im
4d)	|
=47	=47
2c}	Haar.}
2r	.
2r	.
{2e-	{Das
=48	=48
2.a-	Ma2gd-
4g	-lein
2f	a-
2g	-ber
=49	=49
(4a-	wallt
4cc	|
4b-)	|
4a-	nicht
2g	weit,
(4g	tritt
4g-)	|
=50	=50
(4f	vor
4gn	|
4a-)	|
4e-	den
(2f	Hoch
4e-)	|
4d-	-al-
=51	=51
2c}	-tar:}
2r	.
2r	.
{2gg	{"Zur
=52	=52
2ff	Non-
2ee-	-ne
1dn	weiht
=53	=53
2r	.
2ee-	mich
(2dn	ar-
4cc)	|
4cc	-me
=54	=54
1dn	Maid!
1r	.
=55	=55
1gg	Strib,
2.ff	Lieb'
4ee-	und
=56	=56
1dn}	Freud'!"}
1r	.
!! rest to measure 58
=58	=58
1r	.
2r	.
{2e-	{Gott
=59	=59
2.cc	gib,
4cc	dass
2.dd-	die-
4g	-ses
=60	=60
1b-	Ma2gd-
2.a-	-lein
4a-	ihr
=61	=61
2.g	Kra2nz-
4g	-lein
2.a-	fried-
4a-	-lich
=62	=62
(qcc	trag',
1.b-)	|
2e-	es
=63	=63
2.cc	ist
4cc	die
2dd-	Herz-
4g	-al-
4g	-ler
=64	=64
2.b-	lieb-
4a-	-ste
1a-	mein,
=65	=65
2ff	bleibt's
4dd-	bis
4cc	zum
2.b-	ju2ng-
4f	-sten
=66	=66
2g}	Tag.}
2r	.
2r	.
4r	.
{4cc	{Sie
=67	=67
2b-	weiss
2a-	es
2g	nicht,
4r	.
4a-	mein
=68	=68
(2g	Herz
4f)	|
4f	zer-
2g	-bricht,
2r	.
=69	=69
1cc	stirb,
2.b-	Lieb'
4a-	und
=70	=70
1g}	Licht!}
1r	.
==	==
*-	*-
